!!!COM: Chopin, Frederic
!!!CDT: 1810///-1849///
!!!OTL: Prelude in C Minor, Op. 28, No. 1
!!!OPS: Op. 28
!!!ONM: No. 1
!!!OMD: Agitato
!!!ODT: 1836///-1839///
!!!PDT: 1839///
!!!ENC: Craig Stuart Sapp
!!!AIN: piano
!!!EEV: 2008/01/16/
!!!YEC: Copyright 2008 by Craig Stuart Sapp
!!!YEN: United States of America
**kern	**kern	**kern	**kern
*Ipiano	*Ipiano	*Ipiano	*Ipiano
*staff2	*staff2	*staff1	*staff1
*clefF4	*clefF4	*clefG2	*clefG2
*k[]	*k[]	*k[]	*k[]
*C:	*C:	*C:	*C:
*M2/8	*M2/8	*M2/8	*M2/8
*MM80	*MM80	*MM80	*MM80
=1-	=1-	=1-	=1-
24CC\LL	24r	8r	24r
24GG\	6G/	.	(24G/LL
24E\JJ	.	.	24c/JJ
8r	.	24e\LL	12g/L
.	.	24c\	.
.	24A/	24A\JJ	24a/Jk)
=2	=2	=2	=2
24BBB\LL	24r	8r	24r
24GG\	6G/	.	(24G/LL
24F\JJ	.	.	24d/JJ
8r	.	24f\LL	12g/L
.	.	24d\	.
.	24A/	24A\JJ	24a/Jk)
=3	=3	=3	=3
24CC\LL	24r	8r	24r
24GG\	6G/	.	(24G/LL
24E\JJ	.	.	24c/JJ
8r	.	24e\LL	12g/L
.	.	24c\	.
.	24A/	24A\JJ	24a/Jk)
=4	=4	=4	=4
24EE\LL	24r	8r	24r
24C\	6G/	.	(24B/LL
24G\JJ	.	.	24e/JJ
8r	.	24g\LL	12b/L
.	.	24e\	.
.	24c/	24c\JJ	24cc/Jk)
=5	=5	=5	=5
24FF\LL	24r	8r	24r
24C\	6e/	.	(24e/LL
24A\JJ	.	.	24a/JJ
8r	.	24cc\LL	12ee/L
.	.	24a\	.
.	24d/	24dd\JJ	24dd/Jk)
=6	=6	=6	=6
24FF#\LL	24r	8r	24r
24D\	6e/	.	(24e/LL
24c\JJ	.	.	24a/JJ
8r	.	24cc\LL	12ee/L
.	.	24a\	.
.	24d/	24dd\JJ	24dd/Jk)
=7	=7	=7	=7
24GG\LL	24r	8r	24r
24Fn\	6e/	.	(24e/LL
24B\JJ	.	.	24g/JJ
8r	.	24b\LL	12ee/L
.	.	24g\	.
.	24d/	24d\JJ	24dd/Jk)
=8	=8	=8	=8
24GGG\LL	24r	8r	24r
24GG\	6B/	.	(24B/LL
24F\JJ	.	.	24d/JJ
8r	.	24f\LL	12b/L
.	.	24d\	.
.	24A/	24A\JJ	24a/Jk)
=9	=9	=9	=9
24CC\LL	24r	8r	24r
24GG\	6G/	.	(24G/LL
24E\JJ	.	.	24c/JJ
8r	.	24e\LL	12g/L
.	.	24c\	.
.	24A/	24A\JJ	24a/Jk)
=10	=10	=10	=10
24BBB\LL	24r	8r	24r
24GG\	6G/	.	(24G/LL
24F\JJ	.	.	24d/JJ
8r	.	24f\LL	12g/L
.	.	24d\	.
.	24A/	24A\JJ	24a/Jk)
=11	=11	=11	=11
24CC\LL	24r	8r	24r
24GG\	6G/	.	(24G/LL
24E\JJ	.	.	24c/JJ
8r	.	24e\LL	12g/L
.	.	24c\	.
.	24A/	24A\JJ	24a/Jk)
=12	=12	=12	=12
24EE\LL	24r	8r	24r
24C\	6B/	.	(24B/LL
24G\JJ	.	.	24e/JJ
8r	.	24g\LL	12b/L
.	.	24e\	.
.	24c/	24c\JJ	24cc/Jk)
=13	=13	=13	=13
24FF\LL	24r	8r	24r
24Cn\	6c#/	.	(24c#/LL
24A\JJ	.	.	24f/JJ
8r	.	24a\LL	12cc#/L
.	.	24f\	.
.	24d/	24d\JJ	24dd/Jk)
=14	=14	=14	=14
24GG\LL	24r	8r	24r
24C\	6d#/	.	(24d#/LL
24B-\JJ	.	.	24g/JJ
8r	.	24cc\LL	12dd#/L
.	.	24g\	.
.	24e/	24e\JJ	24ee/Jk)
=15	=15	=15	=15
24AA\LL	24r	8r	24r
24F\	6g/	.	(24g/LL
24c\JJ	.	.	24a/JJ
8r	.	24cc\LL	12gg/L
.	.	24a\	.
.	24f/	24f\JJ	24ff/Jk)
=16	=16	=16	=16
24GG\LL	24r	8r	24r
24C\	6d#/	.	(24d#/LL
24c\JJ	.	.	24g/JJ
8r	.	24cc\LL	12dd#/L
.	.	24g\	.
.	24e/	24e\JJ	24ee/Jk)
=17	=17	=17	=17
24AA\LL	24r	8r	24r
24F\	6e/	.	(24e/LL
24c\JJ	.	.	24a/JJ
8r	.	24cc\LL	12ee/L
.	.	24a\	.
.	24f/	24f\JJ	24ff/Jk)
=18	=18	=18	=18
24BB\LL	5f#/	8r	(20f#/LL
24G\	.	.	.
.	.	.	20b/JJ
24d\JJ	.	.	.
.	.	.	10gg#/L
8r	.	24dd\LL	.
.	.	24b\	.
.	20g/	.	20aa/Jk)
.	.	24g\JJ	.
=19	=19	=19	=19
24C\LL	5g#/	8r	(20g#/LL
24Gn\	.	.	.
.	.	.	20cc/JJ
24e\JJ	.	.	.
.	.	.	10gg#/L
8r	.	24ee\LL	.
.	.	24cc\	.
.	20a/	.	20aa/Jk)
.	.	24a\JJ	.
=20	=20	=20	=20
24D\LL	5a#/	8r	(20a#/LL
24G\	.	.	.
.	.	.	20dd/JJ
24f\JJ	.	.	.
.	.	.	10aa#/L
8r	.	24gg\LL	.
.	.	24dd\	.
.	20b/	.	20bb/Jk)
.	.	24b\JJ	.
=21	=21	=21	=21
24E\LL	24r	8r	24r
24c\	6dd/	.	(24dd/LL
24g\JJ	.	.	24ee/JJ
8r	.	24gg\LL	12ddd/L
.	.	24ee\	.
.	24cc/	24cc\JJ	24ccc/Jk)
=22	=22	=22	=22
24FF#\LL	24r	8r	24r
24D#\	6b/	.	(24b/LL
24c\JJ	.	.	24cc/JJ
8r	.	24dd#\LL	12bb/L
.	.	24cc\	.
.	24a/	24a\JJ	24aa/Jk)
=23	=23	=23	=23
24GG\LL	5a/	8r	(20a/LL
24E\	.	.	.
.	.	.	20cc/JJ
24c\JJ	.	.	.
.	.	.	10aa/L
8r	.	24ee\LL	.
.	.	24cc\	.
.	20g/	.	20gg/Jk)
.	.	24g\JJ	.
=24	=24	=24	=24
24GG\LL	24r	8r	24r
24F\	6e/	.	(24e/LL
24B\JJ	.	.	24g/JJ
8r	.	24b\LL	12ee/L
.	.	24g\	.
.	24d/	24d\JJ	24dd/Jk)
=25	=25	=25	=25
24CC\LL	5G/	8r	(20G/LL
24GG\	.	.	.
.	.	.	20c/JJ
24E\JJ	.	.	.
.	.	.	10g/L
8r	.	24e\LL	.
.	.	24c\	.
.	20A/	.	20a/Jk)
.	.	24A\JJ	.
=26	=26	=26	=26
24CC\LL	5e/	8r	(20e/LL
24GG\	.	.	.
.	.	.	20g/JJ
24F\JJ	.	.	.
.	.	.	10ee/L
8r	.	24b\LL	.
.	.	24g\	.
.	20d/	.	20dd/Jk)
.	.	24d\JJ	.
=27	=27	=27	=27
24CC\LL	24r	8r	24r
24GG\	6G/	.	(24G/LL
24E\JJ	.	.	24c/JJ
8r	.	24e\LL	12g/L
.	.	24c\	.
.	24A/	24A\JJ	24a/Jk)
=28	=28	=28	=28
24CC\LL	24r	8r	24r
24GG\	6e/	.	(24e/LL
24F\JJ	.	.	24g/JJ
8r	.	24b\LL	12ee/L
.	.	24g\	.
.	24d/	24d\JJ	24dd/Jk)
=29	=29	=29	=29
24CC\LL	24r	8r	24r
24GG\	6c/	.	(24c/LL
24G\JJ	.	.	24f/JJ
8r	.	24a\LL	[8cc/
.	.	24f\	.
.	24g/	24e\JJ	.
=30	=30	=30	=30
24CC\LL	24r	8r	24cc/])
24GG\	6c/	.	(24c/LL
24G\JJ	.	.	24f/JJ
8r	.	24a\LL	[8cc/
.	.	24f\	.
.	24g/	24e\JJ	.
=31	=31	=31	=31
24CC\LL	24r	8r	24cc/])
24GG\	6c/	.	(24c/LL
24G\JJ	.	.	24f/JJ
8r	.	24a\LL	[8cc/
.	.	24f\	.
.	24g/	24e\JJ	.
=32	=32	=32	=32
24CC\LL	24r	8r	24cc/])
24GG\	6c/	.	(24c/LL
24G\JJ	.	.	24f/JJ
8r	.	24a\LL	8cc/)
.	.	24f\	.
.	24g/	24e\JJ	.
=33	=33	=33	=33
24CC\LL	8r	4r	4r
24GG\	.	.	.
24C\JJ	.	.	.
8r	(24E/LL	.	.
.	24G/	.	.
.	24c/JJ	.	.
=34	=34	=34	=34
4r	4r	4r	4r
!!4CC\ 4GG\ 4C\	4E/) 4G/ 4c/ 4e/	4r	4r
==	==	==	==
*-	*-	*-	*-
